icons/src/scalable/default/hicolor/mail_generic.svg

<?xml version="1.0" encoding="UTF-8" standalone="no"?>
<svg
   clip-rule="evenodd"
   fill-rule="evenodd"
   stroke-linecap="round"
   stroke-linejoin="round"
   stroke-miterlimit="1.5"
   viewBox="0 0 128 128"
   version="1.1"
   id="svg23"
   sodipodi:docname="mail_generic.svg"
   inkscape:version="1.1.2 (0a00cf5339, 2022-02-04)"
   xmlns:inkscape="http://www.inkscape.org/namespaces/inkscape"
   xmlns:sodipodi="http://sodipodi.sourceforge.net/DTD/sodipodi-0.dtd"
   xmlns:xlink="http://www.w3.org/1999/xlink"
   xmlns="http://www.w3.org/2000/svg"
   xmlns:svg="http://www.w3.org/2000/svg">
  <defs
     id="defs27">
    <linearGradient
       inkscape:collect="always"
       xlink:href="#a-3"
       id="linearGradient1397"
       gradientUnits="userSpaceOnUse"
       gradientTransform="matrix(0,83.310875,72.822355,0,66.61057,9.3779434)"
       x2="1" />
    <linearGradient
       id="a-3"
       x2="1"
       gradientTransform="matrix(0,166.62175,148.19284,0,126.87581,13.075331)"
       gradientUnits="userSpaceOnUse">
      <stop
         stop-color="#0b7cd4"
         offset="0"
         id="stop2-6" />
      <stop
         stop-color="#1a96be"
         offset="1"
         id="stop4-7" />
    </linearGradient>
    <linearGradient
       inkscape:collect="always"
       xlink:href="#b-5"
       id="linearGradient1399"
       gradientUnits="userSpaceOnUse"
       gradientTransform="matrix(0,-74.09642,72.822355,0,66.61057,119.28134)"
       x2="1" />
    <linearGradient
       id="b-5"
       x2="1"
       gradientTransform="matrix(0,-148.19284,148.19284,0,126.87581,232.88212)"
       gradientUnits="userSpaceOnUse">
      <stop
         stop-color="#1075f6"
         offset="0"
         id="stop7-3" />
      <stop
         stop-color="#12c5ff"
         offset="1"
         id="stop9-5" />
    </linearGradient>
    <linearGradient
       inkscape:collect="always"
       xlink:href="#c-6"
       id="linearGradient1401"
       gradientUnits="userSpaceOnUse"
       gradientTransform="matrix(0,34.720129,-34.123126,0,64.0939,85.279763)"
       x2="1" />
    <linearGradient
       id="c-6"
       x2="1"
       gradientTransform="matrix(0,69.440258,-69.440258,0,121.7544,164.87897)"
       gradientUnits="userSpaceOnUse">
      <stop
         stop-color="#aad2ff"
         offset="0"
         id="stop12-2" />
      <stop
         stop-color="#1079f6"
         offset="1"
         id="stop14-9" />
    </linearGradient>
  </defs>
  <sodipodi:namedview
     id="namedview25"
     pagecolor="#ffffff"
     bordercolor="#666666"
     borderopacity="1.0"
     inkscape:pageshadow="2"
     inkscape:pageopacity="0.0"
     inkscape:pagecheckerboard="0"
     showgrid="false"
     inkscape:zoom="2.90625"
     inkscape:cx="67.784946"
     inkscape:cy="68.817204"
     inkscape:window-width="1904"
     inkscape:window-height="1011"
     inkscape:window-x="0"
     inkscape:window-y="32"
     inkscape:window-maximized="1"
     inkscape:current-layer="svg23" />
  <linearGradient
     id="a"
     x2="1"
     gradientTransform="matrix(0 -615.633 615.633 0 534.968 867.778)"
     gradientUnits="userSpaceOnUse">
    <stop
       stop-color="#0b7cd4"
       offset="0"
       id="stop2" />
    <stop
       stop-color="#1a96be"
       offset="1"
       id="stop4" />
  </linearGradient>
  <linearGradient
     id="b"
     x2="1"
     gradientTransform="matrix(0 -615.633 615.633 0 534.968 867.778)"
     gradientUnits="userSpaceOnUse">
    <stop
       stop-color="#1075f6"
       offset="0"
       id="stop7" />
    <stop
       stop-color="#12c5ff"
       offset="1"
       id="stop9" />
  </linearGradient>
  <linearGradient
     id="c"
     x2="1"
     gradientTransform="matrix(0 34.3572 -34.3572 0 64.0825 86.7914)"
     gradientUnits="userSpaceOnUse">
    <stop
       stop-color="#aad2ff"
       offset="0"
       id="stop12" />
    <stop
       stop-color="#1079f6"
       offset="1"
       id="stop14" />
  </linearGradient>
  <path
     d="M 120,89.447773 8,89.368473 V 51.354444 c 0,-2.07495 0.9739904,-4.02526 2.62115,-5.248605 9.05311,-6.723515 39.02873,-28.98565 49.62667,-36.8564536 2.23684,-1.6612572 5.27118,-1.6662642 7.51334,-0.01245 10.59925,7.8177566 40.52981,29.8940936 49.60077,36.5845886 1.6571,1.22226 2.63807,3.178525 2.63807,5.26105 z"
     fill="url(#a)"
     id="path17"
     style="display:inline;fill:url(#linearGradient1397);stroke-width:0.12652;enable-background:new" />
  <path
     style="font-style:normal;font-variant:normal;font-weight:normal;font-stretch:normal;font-size:15px;line-height:125%;font-family:Ubuntu;-inkscape-font-specification:Ubuntu;text-align:center;letter-spacing:0px;word-spacing:0px;writing-mode:lr-tb;text-anchor:middle;display:inline;fill:#faf8f6;fill-opacity:1;stroke:none;stroke-width:0.469908;enable-background:new"
     d="m 29.76495,36.181914 c -3.51273,-0.04015 -5.87318,0.68125 -7.08456,2.010515 -1.27195,1.38466 -1.92382,3.65641 -1.92382,6.81342 v 55.881371 h 86.48687 V 45.005849 c 0,-3.15701 -0.65182,-5.428765 -1.92376,-6.81342 -1.21136,-1.329265 -3.60808,-2.010515 -7.084573,-2.010515 H 92.37203 43.75085 Z"
     id="path4163"
     inkscape:connector-curvature="0"
     sodipodi:nodetypes="ccsccscsccc" />
  <path
     d="m 66.9361,83.239384 c -1.8052,1.111749 -4.06759,1.112829 -5.87385,0.0025 C 49.53171,76.155469 8,50.630164 8,50.630164 V 112.91078 C 8,116.82603 11.11927,120 14.96719,120 h 98.31485 c 1.78178,0 3.49045,-0.72023 4.75035,-2.00216 C 119.29228,116.71603 120,114.97733 120,113.1645 V 50.559634 c 0,0 -41.53561,25.579945 -53.0639,32.67975 z"
     fill="url(#b)"
     id="path19"
     style="display:inline;fill:url(#linearGradient1399);stroke-width:0.119319;enable-background:new" />
  <path
     style="color:#000000;display:inline;overflow:visible;visibility:visible;opacity:0.5;fill:#80a3fa;fill-opacity:0.996078;fill-rule:nonzero;stroke:none;stroke-width:2.11458;marker:none;enable-background:accumulate"
     d="m 36.48144,50.559634 v 3.59483 h 55.03711 v -3.59483 z m 0,10.784485 v 3.594825 H 64 v -3.594825 z"
     id="path14977"
     inkscape:connector-curvature="0"
     sodipodi:nodetypes="cccccccccc" />
  <path
     d="m 10.78011,117.78514 c -1.3229296,-2.42131 -1.3696096,-4.8881 1.38649,-6.34533 8.24941,-4.36159 41.01266,-22.082827 49.70703,-26.787002 1.32888,-0.718509 2.92294,-0.716489 4.24984,0.0071 8.61888,4.70114 40.91831,22.317282 49.1131,26.779932 3.26262,1.77758 3.69962,4.80826 2.29029,6.34532"
     fill="none"
     stroke="url(#c)"
     id="path21"
     style="display:inline;stroke:url(#linearGradient1401);stroke-width:1.00184;enable-background:new" />
</svg>

<svg clip-rule="evenodd" fill-rule="evenodd" stroke-linecap="round" stroke-linejoin="round" stroke-miterlimit="1.5" version="1.1" viewBox="0 0 128 128" xmlns="http://www.w3.org/2000/svg" xmlns:xlink="http://www.w3.org/1999/xlink">
 <defs>
  <linearGradient id="c" x2="1" gradientTransform="matrix(0 83.311 72.822 0 66.611 9.3779)" gradientUnits="userSpaceOnUse">
   <stop stop-color="#0b7cd4" offset="0"/>
   <stop stop-color="#1a96be" offset="1"/>
  </linearGradient>
  <linearGradient id="b" x2="1" gradientTransform="matrix(0 -74.096 72.822 0 66.611 119.28)" gradientUnits="userSpaceOnUse">
   <stop stop-color="#1075f6" offset="0"/>
   <stop stop-color="#12c5ff" offset="1"/>
  </linearGradient>
  <linearGradient id="a" x2="1" gradientTransform="matrix(0 34.72 -34.123 0 64.094 85.28)" gradientUnits="userSpaceOnUse">
   <stop stop-color="#aad2ff" offset="0"/>
   <stop stop-color="#1079f6" offset="1"/>
  </linearGradient>
 </defs>
 <g>
  <path d="m120 89.448-112-0.0793v-38.014c0-2.075 0.97399-4.0253 2.6212-5.2486 9.0531-6.7235 39.029-28.986 49.627-36.856 2.2368-1.6613 5.2712-1.6663 7.5133-0.01245 10.599 7.8178 40.53 29.894 49.601 36.585 1.6571 1.2223 2.6381 3.1785 2.6381 5.261z" enable-background="new" fill="url(#c)" stroke-width=".12652"/>
  <path d="m29.765 36.182c-3.5127-0.04015-5.8732 0.68125-7.0846 2.0105-1.272 1.3847-1.9238 3.6564-1.9238 6.8134v55.881h86.487v-55.881c0-3.157-0.65182-5.4288-1.9238-6.8134-1.2114-1.3293-3.6081-2.0105-7.0846-2.0105h-54.484z" enable-background="new" fill="#faf8f6"/>
  <path d="m66.936 83.239c-1.8052 1.1117-4.0676 1.1128-5.8738 0.0025-11.531-7.0864-53.062-32.612-53.062-32.612v62.281c0 3.9152 3.1193 7.0892 6.9672 7.0892h98.315c1.7818 0 3.4904-0.72023 4.7504-2.0022 1.2599-1.2818 1.9676-3.0205 1.9676-4.8333v-62.605s-41.536 25.58-53.064 32.68z" enable-background="new" fill="url(#b)" stroke-width=".11932"/>
 </g>
 <path d="m36.481 50.56v3.5948h55.037v-3.5948zm0 10.784v3.5948h27.519v-3.5948z" color="#000000" fill="#80a3fa" fill-opacity=".99608" fill-rule="nonzero" opacity=".5"/>
 <path d="m10.78 117.79c-1.3229-2.4213-1.3696-4.8881 1.3865-6.3453 8.2494-4.3616 41.013-22.083 49.707-26.787 1.3289-0.71851 2.9229-0.71649 4.2498 0.0071 8.6189 4.7011 40.918 22.317 49.113 26.78 3.2626 1.7776 3.6996 4.8083 2.2903 6.3453" enable-background="new" fill="none" stroke="url(#a)" stroke-width="1.0018"/>
</svg>
